CSETWebApi/CSETWeb_Api/CSETWeb_ApiCore/Diagram/src/main/webapp/img/lib/mscae/Automation.svg

<svg xmlns="http://www.w3.org/2000/svg" width="50.001" height="45.312"><path d="M46.28 21.656c0-.375-.03-.734-.063-1.11L50 18.453a18.72 18.72 0 0 0-.969-3.625l-4.313.078c-.328-.672-.688-1.328-1.094-1.938l2.22-3.703c-.797-.97-1.688-1.86-2.64-2.64L41.014 7.92l-.922 1.375-1.984 2.922a11.92 11.92 0 0 1 4.625 9.438c0 6.594-5.328 11.938-11.922 11.938-6.578 0-11.922-5.344-11.922-11.938 0-5.906 4.28-10.78 9.906-11.75l.906-3.672-2.094-3.78c-1.248.203-2.45.53-3.607.968l.063 4.328a13.84 13.84 0 0 0-1.922 1.094l-3.703-2.22c-.97.78-1.844 1.672-2.64 2.64l2.22 3.703c-.422.61-.766 1.266-1.094 1.938l-4.328-.078a19.91 19.91 0 0 0-.953 3.625l3.766 2.094c-.03.375-.047.734-.047 1.11s.016.734.047 1.11L11.64 24.86a18.72 18.72 0 0 0 .969 3.625l4.313-.078c.328.672.672 1.328 1.094 1.938l-2.22 3.703a19.27 19.27 0 0 0 2.641 2.656l3.703-2.234c.61.422 1.266.78 1.922 1.11L24 39.9c1.156.438 2.36.766 3.61.97l2.11-3.78c.36.03.72.063 1.094.063s.75-.03 1.11-.063l2.094 3.78a18.72 18.72 0 0 0 3.625-.969l-.078-4.313a15.99 15.99 0 0 0 1.938-1.109l3.703 2.234a20.27 20.27 0 0 0 2.641-2.656l-2.22-3.703c.406-.61.766-1.266 1.094-1.938l4.313.078a18.72 18.72 0 0 0 .969-3.625l-3.78-2.094c.03-.374.06-.733.06-1.108z" fill="#a0a1a2"/><path d="M16 38.03v-1.86l-.102-.094-1.902-.64-.5-1.28.942-1.953.104-.22-.59-.594-.716-.72-.25.125-1.86.953-1.28-.36-.81-2.078H7.203l-.094.094-.64 1.898-1.296.488-2.156-1.037-1.313 1.302.125.245.953 1.857-.53 1.28-2.25.81v1.86l.266.078 1.984.656.53 1.28-1.016 2.156 1.313 1.328.25-.125 1.86-.953 1.28.53.813 2.25h1.86l.078-.266.656-1.984 1.266-.53 2.172 1.016 1.313-1.313-.125-.25-.953-1.86.367-1.297L16 38.03zm-7.828 1.72c-1.438 0-2.61-1.172-2.61-2.61s1.172-2.61 2.61-2.61 2.594 1.172 2.594 2.61-1.157 2.61-2.594 2.61z" fill="#7a7a7a"/><path d="M33.297 0l-.72 2.266-1.234 3.938-.594 1.89-.516 1.656L26.64 21.17c-.078.22.03.39.28.39h3.313c.11 0 .188.03.234.094.078.078.094.188.047.313l-3.422 8.297c-.094.22-.03.266.125.078l10.83-12.282c.156-.188.094-.328-.14-.328l-3.547.016-.656.016c-.234 0-.344-.172-.22-.375l3.375-6.016.797-1.438.922-1.656 1.97-3.484 1.125-2.03A21.54 21.54 0 0 0 33.297 0z" fill="#fcd116"/><path d="M39.505 1.68L31.66 17.75h1.953c-.174-.037-.25-.183-.14-.36l3.375-6.016.797-1.438.922-1.656 1.97-3.484 1.125-2.03a22.19 22.19 0 0 0-2.157-1.086zM37.92 17.734l-2.2.01-8.093 12.14L38.06 18.062c.156-.187.094-.328-.14-.328z" opacity=".3" fill="#ff8c00"/></svg>

<?xml version="1.0" encoding="UTF-8" standalone="no"?>
<svg
   xmlns:dc="http://purl.org/dc/elements/1.1/"
   xmlns:cc="http://creativecommons.org/ns#"
   xmlns:rdf="http://www.w3.org/1999/02/22-rdf-syntax-ns#"
   xmlns:svg="http://www.w3.org/2000/svg"
   xmlns="http://www.w3.org/2000/svg"
   xmlns:sodipodi="http://sodipodi.sourceforge.net/DTD/sodipodi-0.dtd"
   xmlns:inkscape="http://www.inkscape.org/namespaces/inkscape"
   version="1.1"
   id="Layer_1"
   x="0px"
   y="0px"
   width="50.000999"
   height="45.312"
   viewBox="0 0 50.000999 45.312"
   enable-background="new 0 0 50 50"
   xml:space="preserve"
   inkscape:version="0.91 r13725"
   sodipodi:docname="Azure Automation_COLOR.svg"><metadata
     id="metadata17"><rdf:RDF><cc:Work
         rdf:about=""><dc:format>image/svg+xml</dc:format><dc:type
           rdf:resource="http://purl.org/dc/dcmitype/StillImage" /><dc:title></dc:title></cc:Work></rdf:RDF></metadata><defs
     id="defs15" /><sodipodi:namedview
     pagecolor="#ffffff"
     bordercolor="#666666"
     borderopacity="1"
     objecttolerance="10"
     gridtolerance="10"
     guidetolerance="10"
     inkscape:pageopacity="0"
     inkscape:pageshadow="2"
     inkscape:window-width="1920"
     inkscape:window-height="1018"
     id="namedview13"
     showgrid="false"
     fit-margin-top="0"
     fit-margin-left="0"
     fit-margin-right="0"
     fit-margin-bottom="0"
     inkscape:zoom="16.059063"
     inkscape:cx="25"
     inkscape:cy="22"
     inkscape:window-x="-8"
     inkscape:window-y="-8"
     inkscape:window-maximized="1"
     inkscape:current-layer="Layer_1" /><path
     d="M 46.281,21.656 C 46.281,21.281 46.25,20.922 46.218,20.547 L 50,18.453 C 49.797,17.203 49.469,15.984 49.031,14.828 L 44.718,14.906 C 44.39,14.234 44.03,13.578 43.624,12.968 L 45.843,9.265 C 45.046,8.296 44.155,7.406 43.202,6.624 L 41.014,7.921 40.092,9.296 38.108,12.218 C 40.921,14.406 42.733,17.812 42.733,21.656 42.733,28.25 37.405,33.594 30.811,33.594 24.233,33.594 18.889,28.25 18.889,21.656 18.889,15.75 23.17,10.875 28.795,9.906 L 29.701,6.234 27.607,2.453 C 26.359,2.656 25.156,2.984 24,3.421 L 24.063,7.749 C 23.407,8.062 22.75,8.421 22.141,8.843 L 18.438,6.624 C 17.469,7.405 16.594,8.296 15.797,9.265 L 18.016,12.968 C 17.594,13.577 17.25,14.234 16.922,14.906 L 12.594,14.828 C 12.172,15.984 11.844,17.203 11.641,18.453 L 15.407,20.547 C 15.376,20.922 15.36,21.281 15.36,21.656 15.36,22.031 15.376,22.39 15.407,22.765 L 11.641,24.859 C 11.844,26.109 12.172,27.328 12.61,28.484 L 16.923,28.406 C 17.251,29.078 17.595,29.734 18.017,30.344 L 15.798,34.047 C 16.595,35.016 17.47,35.906 18.439,36.703 L 22.142,34.469 C 22.751,34.891 23.408,35.25 24.064,35.578 L 24,39.89 C 25.156,40.328 26.359,40.656 27.609,40.859 L 29.718,37.078 C 30.077,37.109 30.437,37.141 30.812,37.141 31.187,37.141 31.562,37.11 31.921,37.078 L 34.015,40.859 C 35.265,40.656 36.484,40.328 37.64,39.89 L 37.562,35.577 C 38.234,35.249 38.875,34.889 39.5,34.468 L 43.203,36.702 C 44.156,35.905 45.047,35.014 45.844,34.046 L 43.625,30.343 C 44.031,29.734 44.391,29.077 44.719,28.405 L 49.032,28.483 C 49.47,27.327 49.798,26.108 50.001,24.858 L 46.22,22.764 C 46.25,22.39 46.281,22.031 46.281,21.656 Z"
     id="path3"
     inkscape:connector-curvature="0"
     style="fill:#a0a1a2" /><path
     d="M 16,38.031 16,36.172 15.898,36.078 13.996,35.437 13.506,34.156 14.448,32.203 14.552,31.984 13.963,31.39 13.247,30.671 12.998,30.796 11.139,31.749 9.858,31.39 9.047,29.312 7.203,29.312 7.109,29.406 6.468,31.304 5.172,31.792 3.016,30.755 1.703,32.057 1.828,32.302 2.781,34.159 2.25,35.439 0,36.25 0,38.109 0.266,38.187 2.25,38.843 2.781,40.124 1.765,42.28 3.078,43.608 3.328,43.483 5.187,42.53 6.468,43.061 7.281,45.312 9.14,45.312 9.218,45.046 9.874,43.062 11.14,42.531 13.312,43.547 14.625,42.234 14.5,41.984 13.547,40.125 13.914,38.828 16,38.031 Z M 8.172,39.75 C 6.734,39.75 5.563,38.578 5.563,37.141 5.563,35.704 6.735,34.532 8.172,34.532 9.609,34.532 10.766,35.704 10.766,37.141 10.766,38.578 9.609,39.75 8.172,39.75 Z"
     id="path5"
     inkscape:connector-curvature="0"
     style="fill:#7a7a7a" /><path
     d="M 33.297,0 32.578,2.266 31.344,6.204 30.75,8.093 30.234,9.749 26.64,21.171 C 26.562,21.39 26.671,21.562 26.921,21.562 L 30.234,21.562 C 30.343,21.562 30.422,21.593 30.468,21.656 30.546,21.734 30.562,21.844 30.515,21.969 L 27.093,30.266 C 26.999,30.485 27.062,30.532 27.218,30.344 L 38.047,18.062 C 38.203,17.874 38.141,17.734 37.906,17.734 L 34.359,17.75 33.703,17.766 C 33.469,17.766 33.359,17.594 33.484,17.391 L 36.859,11.375 37.656,9.937 38.578,8.281 40.547,4.797 41.672,2.766 C 39.156,1.312 36.328,0.343 33.297,0 Z"
     id="path7"
     inkscape:connector-curvature="0"
     style="fill:#fcd116" /><path
     d="M 39.505,1.679 31.661,17.749 33.614,17.749 C 33.44,17.712 33.365,17.566 33.474,17.39 L 36.849,11.374 37.646,9.936 38.568,8.28 40.537,4.796 41.662,2.765 C 40.966,2.364 40.245,2.004 39.505,1.679 Z"
     id="path9"
     inkscape:connector-curvature="0"
     style="opacity:0.3;fill:#ff8c00" /><path
     d="M 37.92,17.734 35.731,17.744 27.638,29.884 38.061,18.062 C 38.217,17.875 38.155,17.734 37.92,17.734 Z"
     id="path11"
     inkscape:connector-curvature="0"
     style="opacity:0.3;fill:#ff8c00" /></svg>
